!!!!SEGMENT: pl-wnifc--6730-n--025_sowinski-wojciech--chants-religieux-de-la-pologne-op-93-saint-jean-de-kenty-saint-jean-kanty-ta-pure-foi.krn
!!!cenid: 18xx:4039
!!!COM: Sowiński, Wojciech
!!!COM-rismID: pe30008543
!!!CDT: ~1803-1880/03/05
!!!CNT:
!!!OTL: Chants religieux de la Pologne op. 93
!!!PDT: 1830
!!!AGN:
!!!SMS-siglum: PL-Wnifc
!!!SMS-shelfmark: 6730/n
!!!SMS-shelfwork: 025 W
!!!SMS-variant:
!!!SMS-altvar:
!!!NIFC-rismSourceID: 1001138221
!!!NIFC-rismChildID: 1001138248
!!!NIFC-islandoraID: nifc:213350
!!!URL-pdf-islandora: https://repozytorium.nifc.pl/islandora/object/nifc%3A213350/datastream/PDF/view
!!!URL-scan: https://polish.musicsources.pl/pl/lokalizacje/galeria/druki-muzyczne/16913 @EN{Scan on Polish Music Sources Website} @PL{Skany w portalu Dziedzictwo Muzyki Polskiej w otwartym dostępie}
!!!IIIF:
!!!ONB-nifc: UWAGA: str. 99-101
!!!AIN: 1 calto 2 organ 2 soprn
!!!key: g
**kern	**kern	**dynam	**kern	**text	**dynam	**kern	**text	**dynam	**kern	**text	**dynam
*part5	*part4	*part4	*part3	*part3	*part3	*part2	*part2	*part2	*part1	*part1	*part1
*staff5	*staff4	*	*staff3	*staff3	*	*staff2	*staff2	*	*staff1	*staff1	*
*I"Organo	*I"ORGUE.	*	*I"CONTRALTO.	*	*	*I"2.e DESSUS.	*	*	*I"1.er DESSUS.	*	*
*	*I'org	*	*I'Contra-A	*	*	*I'S 2	*	*	*I'S 1	*	*
*Iorgan	*Iorgan	*	*Icalto	*	*	*Isoprn	*	*	*Isoprn	*	*
*ICklav	*ICklav	*	*ICvox	*	*	*ICvox	*	*	*ICvox	*	*
*clefF4	*clefG2	*	*clefG2	*	*	*clefG2	*	*	*clefG2	*	*
*k[b-e-]	*k[b-e-]	*	*k[b-e-]	*	*	*k[b-e-]	*	*	*k[b-e-]	*	*
*g:	*g:	*	*g:	*	*	*g:	*	*	*g:	*	*
*M3/4	*M3/4	*	*M3/4	*	*	*M3/4	*	*	*M3/4	*	*
=1	=1	=1	=1	=1	=1	=1	=1	=1	=1	=1	=1
!	!	!	!	!	!	!	!	!	!LO:TX:a:B:t=Lento	!	!
!	!	!LO:DY:a	!	!	!	!	!	!	!LO:TX:a:B:t=Lento.	!	!
4r	(>4g/	p	2.r	.	.	2.r	.	.	2.r	.	.
!LO:TX:a:t=m.g.	!	!	!	!	!	!	!	!	!	!	!
4g\	4b-/	.	.	.	.	.	.	.	.	.	.
4e-\	4cc/	.	.	.	.	.	.	.	.	.	.
=2	=2	=2	=2	=2	=2	=2	=2	=2	=2	=2	=2
4d\	2dd/	.	2.r	.	.	2.r	.	.	2.r	.	.
4en\	.	.	.	.	.	.	.	.	.	.	.
4f#X\	4cc/)	.	.	.	.	.	.	.	.	.	.
=3	=3	=3	=3	=3	=3	=3	=3	=3	=3	=3	=3
2g\	2b-/	.	2.r	.	.	2.r	.	.	2.r	.	.
4F#X\	4d/ 4a	.	.	.	.	.	.	.	.	.	.
=4	=4	=4	=4	=4	=4	=4	=4	=4	=4	=4	=4
2G\ 2B-	2g/	.	2.r	.	.	2.r	.	.	2.r	.	.
4r	4r	.	.	.	.	.	.	.	.	.	.
=5	=5	=5	=5	=5	=5	=5	=5	=5	=5	=5	=5
!	!	!	!	!	!	!	!	!LO:DY:a	!	!	!LO:DY:a
4r	([4g/	p	2.r	.	.	4g/	Saint	p	4g/	Saint	p
(4G\	4g/] 4b-	p	.	.	.	4g/	Jean	.	4b-\	Jean	.
4E-\	4g/) 4cc	.	.	.	.	4e-/	Kan-	.	4cc\	Kan-	.
!LO:PB:g=original	!LO:PB:g=original	!	!LO:PB:g=original	!	!	!LO:PB:g=original	!	!	!LO:PB:g=original	!	!
=6	=6	=6	=6	=6	=6	=6	=6	=6	=6	=6	=6
!	!	!	!	!	!LO:DY:a	!	!	!	!	!	!
!	!	!	!	!	!LO:DY:a	!	!	!	!	!	!
4D\)	2.f#X/ 2.dd	.	4d/	Saint	p <	2d^>/	-ty	.	2dd^\	-ty	.
4F#X\	.	.	4f#X/	Jean	.	.	.	.	.	.	.
4A\	.	.	4a/	Kan-	[[	4r	.	.	4r	.	.
=7	=7	=7	=7	=7	=7	=7	=7	=7	=7	=7	=7
2G\ 2B-	([4g/	.	2g/	-ty	.	4g/	ta	.	4g/	ta	.
.	4g/] 4b-	.	.	.	.	4g/	pu-	.	4b-/	pu-	.
4E-\ 4e-	4g/) 4cc	.	4e-/	ta	.	4g/	-re	.	4cc\	-re	.
=8	=8	=8	=8	=8	=8	=8	=8	=8	=8	=8	=8
*^	*	*	*	*	*	*	*	*	*	*	*
2.d/	(>4D\	2f#X/ 2dd	.	(4d/	pu-	.	2f#X^>/	foi	.	2dd^\	foi	.
!	!	!	!	!	!	!LO:DY:a	!	!	!	!	!	!
.	4E-\	.	.	4e-/)	.	<	.	.	.	.	.	.
.	4D\)	4r	.	4d/	-re	[[	4r	.	.	4r	.	.
*v	*v	*	*	*	*	*	*	*	*	*	*	*
=9	=9	=9	=9	=9	=9	=9	=9	=9	=9	=9	=9
!	!	!	!	!	!LO:DY:a	!	!	!LO:DY:a	!	!	!LO:DY:a
2.BBB-/ 2.BB-	4fn/ 4dd	f	4B-/	foi	f	4fn/	mon-	f	4dd\	mon-	f
.	4f/ 4dd	.	4B-/	mon-	.	4f/	-treu-	.	4dd\	-treu-	.
.	4f/ 4dd	.	4B-/	-treu-	.	4f/	-ne	.	4dd\	-ne	.
=10	=10	=10	=10	=10	=10	=10	=10	=10	=10	=10	=10
*	*^	*	*	*	*	*	*	*	*	*	*
!LO:TX:a:t=15	!	!	!	!	!	!	!	!	!	!	!	!
4BB-/	(4dd/ 4ff	2.f\	.	4B-/	-ne	.	(4dd\	tra-	.	(4ff\	tra-	.
4C/	4cc/ 4ee-	.	.	4c/	tra-	.	4cc\)	.	.	4ee-\)	.	.
(8D\L	4b-/) 4dd	.	.	(8d/L	-ce	.	4b-\	-ce	.	4dd\	-ce	.
8E-\J)	.	.	.	8e-/J)	.	.	.	.	.	.	.	.
*	*v	*v	*	*	*	*	*	*	*	*	*	*
=11	=11	=11	=11	=11	=11	=11	=11	=11	=11	=11	=11
2F\	4f/ 4a 4cc	.	4f/	que	.	4a/	que	.	4cc\	que	.
.	4f/ 4a 4cc	.	4f/	rien	.	4a/	rien	.	4cc\	rien	.
4F\	4f/ 4a 4cc	.	4f/	n`ef-	.	4a/	n`ef-	.	4cc\	n`ef-	.
!LO:PB:g=original	!LO:PB:g=original	!	!LO:PB:g=original	!	!	!LO:PB:g=original	!	!	!LO:PB:g=original	!	!
=12	=12	=12	=12	=12	=12	=12	=12	=12	=12	=12	=12
2D\	(8f#X/L 8dd	.	(8d/L	-fa-	.	4a/	-fa-	.	(8dd\L	-fa-	.
.	8a/J) 8cc	.	8f#X/J)	.	.	.	.	.	8cc\J)	.	.
.	4g/ 4b-	.	4g/	-ce	.	4g/	.	.	4b-\	.	.
(8d\L	4f#/ 4a	.	4r	.	.	4f#X/	-ce	.	4a/	-ce	.
8c\J)	.	.	.	.	.	.	.	.	.	.	.
=13	=13	=13	=13	=13	=13	=13	=13	=13	=13	=13	=13
!	!	!	!	!	!	!	!	!LO:DY:a	!	!	!LO:DY:a
4B-\	(>[4g/	p	4r	.	.	4g/	et	p	4g/	et	p
4G\	4g/] 4b-	.	4r	.	.	4g/	fait	.	4b-\	fait	.
4E-\	4g/) 4cc	.	4e-/	et	.	4g/	ché-	.	4cc\	ché-	.
=14	=14	=14	=14	=14	=14	=14	=14	=14	=14	=14	=14
!	!	!	!	!	!LO:DY:a	!	!	!	!	!	!
4D\	2.f#X^/ 2.dd	.	4d/	fait	<	2f#X^>/	-rir	.	2dd^\	-rir	.
4F#X\	.	.	4f#X/	ché-	.	.	.	.	.	.	.
4A\	.	.	4a/	-rir	[[	4ryy	.	.	4ryy	.	.
=15	=15	=15	=15	=15	=15	=15	=15	=15	=15	=15	=15
*	*^	*	*	*	*	*	*	*	*	*	*
!	!	!	!	!	!	!LO:DY:a	!	!	!LO:DY:a	!	!	!LO:DY:a
2DD/ 2D	8dd/L	(4f#X\	f	4d/	la	f	4a/	la	f	(8dd\L	la	f
.	8cc/J	.	.	.	.	.	.	.	.	8cc\J)	.	.
.	4g/ 4b-	4d\)	.	4d/	sain-	.	4g/	sain-	.	4b-/	sain-	.
4DD/ 4D	4f#/ 4a	4c\	p	4c/	-te	.	4f#X/	-te	.	4a/	-te	.
*	*v	*v	*	*	*	*	*	*	*	*	*	*
=16	=16	=16	=16	=16	=16	=16	=16	=16	=16	=16	=16
!	!	!	!LO:TX:t=P:problem:LO:N:vis=2.	!	!LO:DY:a	!LO:TX:t=P:problem:LO:N:vis=2.	!	!LO:DY:a	!LO:TX:t=P:problem:LO:N:vis=2.	!	!LO:DY:a
2GG/ 2G	2B-;/ 2g	.	2B-;/	loi	p	2g;/	loi	p	2g;/	loi	p
4r	4r	.	4r	.	.	4r	.	.	4r	.	.
=17	=17	=17	=17	=17	=17	=17	=17	=17	=17	=17	=17
*^	*^	*	*	*	*	*	*	*	*	*	*
!	!	!LO:TX:t=P:problem:brak łuku	!	!	!	!	!	!	!	!	!	!	!
2d/	2.D\	(4ddd/	(2.ff#X\	p	2.r	.	.	2.r	.	.	2.r	.	.
.	.	4ccc/	.	.	.	.	.	.	.	.	.	.	.
4c/	.	4aa/)	.	.	.	.	.	.	.	.	.	.	.
!LO:LB:g=original	!LO:LB:g=original	!LO:LB:g=original	!	!	!LO:LB:g=original	!	!	!LO:LB:g=original	!	!	!LO:LB:g=original	!	!
*v	*v	*	*	*	*	*	*	*	*	*	*	*	*
*	*v	*v	*	*	*	*	*	*	*	*	*	*
=18	=18	=18	=18	=18	=18	=18	=18	=18	=18	=18	=18
2.G\ 2.B-	2.gg\)	.	2.r	.	.	2.r	.	.	2.r	.	.
=19||	=19||	=19||	=19||	=19||	=19||	=19||	=19||	=19||	=19||	=19||	=19||
!	!	!	!	!	!	!	!	!LO:DY:a	!	!	!LO:DY:a
!	!	!	!	!	!	!	!	!LO:DY:a	!LO:TX:a:t=2.e STROPHE.	!	!LO:DY:a
4r	([4g/	p	2.r	.	.	4g/	O	p <	4g/	O	p <
4G\	4g/] 4b-	p	.	.	.	4g/	saint	.	4b-\	saint	.
4E-\	4g/) 4cc	.	.	.	.	4e-/	flam-	[[	4cc\	flam-	[[
=20	=20	=20	=20	=20	=20	=20	=20	=20	=20	=20	=20
!	!	!	!	!	!LO:DY:a	!	!	!	!	!	!
!	!	!	!	!	!LO:DY:a	!	!	!	!	!	!
4D\	2.f#X/ 2.dd	.	4d/	O	p <	2d^>/	-beau	.	2dd^\	-beau	.
4F#X\	.	.	4f#X/	saint	.	.	.	.	.	.	.
4A\	.	.	4a/	flam-	[[	4r	.	.	4r	.	.
=21	=21	=21	=21	=21	=21	=21	=21	=21	=21	=21	=21
!	!	!	!	!	!	!	!	!	!	!	!LO:DY:a
2G\ 2B-	[4g/	.	2g/	-beau	.	4g/	de	.	4g/	de	<
.	4g/] 4b-	.	.	.	.	4g/	vé-	.	4b-/	vé-	.
4E-\ 4e-	4g/ 4cc	.	4e-/	de	.	4g/	-ri-	.	4cc\	-ri-	[[
=22	=22	=22	=22	=22	=22	=22	=22	=22	=22	=22	=22
*^	*	*	*	*	*	*	*	*	*	*	*
2.d/	(>4D\	2f#X/ 2dd	.	(4d/	vé-	.	4f#X^/	-té	.	2dd^\	-té	.
.	4E-\	.	.	4e-/)	.	.	4ryy	.	.	.	.	.
.	4D\)	4r	.	4d/	-ri-	.	4r	.	.	4r	.	.
*v	*v	*	*	*	*	*	*	*	*	*	*	*
=23	=23	=23	=23	=23	=23	=23	=23	=23	=23	=23	=23
!	!	!	!	!	!	!	!	!LO:DY:a	!	!	!LO:DY:a
2.BBB-/ 2.BB-	4fn/ 4dd	f	4B-/	-té	.	4fn/	ta	f	4dd\	ta	f
.	4f/ 4dd	.	4B-/	ta	.	4f/	vi-	.	4dd\	vi-	.
.	4f/ 4dd	.	4B-/	vi-	.	4f/	-ve	.	4dd\	-ve	.
!LO:LB:g=original	!LO:LB:g=original	!LO:LB:g=original	!LO:LB:g=original	!	!	!LO:LB:g=original	!	!	!LO:LB:g=original	!	!
=24	=24	=24	=24	=24	=24	=24	=24	=24	=24	=24	=24
*	*^	*	*	*	*	*	*	*	*	*	*
!LO:TX:a:t=15	!	!	!	!	!	!	!	!	!	!	!	!
4BB-/	(<4dd/ 4ff	2.f\	.	4B-/	-ve	.	(4dd\	flam-	.	(4ff\	flam-	.
4C/	4cc/ 4ee-	.	.	4c/	flam-	.	4cc\)	.	.	4ee-\)	.	.
8D\L	4b-/) 4dd	.	.	(8d/L	-me	.	4b-\	-me	.	4dd\	-me	.
8E-\J	.	.	.	8e-/J)	.	.	.	.	.	.	.	.
*	*v	*v	*	*	*	*	*	*	*	*	*	*
=25	=25	=25	=25	=25	=25	=25	=25	=25	=25	=25	=25
2F\	4f/ 4a 4cc	.	4f/	qui	.	4a/	qui	.	4cc\	qui	.
.	4f/ 4a 4cc	.	4f/	nous	.	4a/	nous	.	4cc\	nous	.
4F\	4f/ 4a 4cc	.	4f/	en-	.	4a/	en-	.	4cc\	en-	.
=26	=26	=26	=26	=26	=26	=26	=26	=26	=26	=26	=26
2D\ 2d	(8f#X/L 8cc	.	(8d/L	-flam-	.	4a/	-flam-	.	(8dd\L	-flam-	.
.	8a/J 8cc	.	8f#X/J	.	.	.	.	.	8cc\J)	.	.
!	!	!	!	!	!LO:DY:a	!	!	!LO:DY:a	!	!	!
.	4g/ 4b-	.	4g/)	.	>	4g/	.	>	4b-\	.	>
4D\ 4d	4f#/) 4a	.	4d/	-me	.	4f#X/	-me	.	4a/	-me	.
=27	=27	=27	=27	=27	=27	=27	=27	=27	=27	=27	=27
!	!	!	!	!	!LO:DY:a	!	!	!LO:DY:a	!	!	!LO:DY:a
2.E-\ 2.e-	([4g/	<	4e-/	rem-	p	4g/	rem-	p	4g/	rem-	p
.	4g/] 4b-	.	4e-/	-plit	.	4g/	-plit	.	4b-/	-plit	.
.	4g/) 4cc	[[	4e-/	nos	.	4g/	nos	.	4cc\	nos	.
=28	=28	=28	=28	=28	=28	=28	=28	=28	=28	=28	=28
*^	*	*	*	*	*	*	*	*	*	*	*
!	!	!	!	!	!	!LO:DY:a	!	!	!	!	!	!
2.d/	4D\	2.f#X/ 2.dd	.	(4d/	coeurs	<	2.f#X^>/	coeurs	.	2.dd^\	coeurs	.
.	4F#X\	.	.	4f#X/	.	.	.	.	.	.	.	.
.	4A\	.	.	4a/)	.	[[	.	.	.	.	.	.
!LO:LB:g=original	!LO:LB:g=original	!LO:LB:g=original	!	!LO:LB:g=original	!	!	!LO:LB:g=original	!	!	!LO:LB:g=original	!	!
*v	*v	*	*	*	*	*	*	*	*	*	*	*
=29	=29	=29	=29	=29	=29	=29	=29	=29	=29	=29	=29
*	*^	*	*	*	*	*	*	*	*	*	*
!	!	!	!	!	!	!	!	!	!	!	!	!LO:DY:a
2DD/ 2D	8dd/L	4f#X\	.	4d/	de	.	4f#X/	de	.	8dd\L	de	<
.	8a/J 8cc	.	.	.	.	.	.	.	.	8cc\J	.	.
.	4g/ 4b-	4d\	.	4d/	cha-	.	4g/	cha-	.	4b-\	cha-	.
4DD/ 4D	4f#/ 4a	4c\	.	4c/	-ri-	.	4f#/	-ri-	.	4a/	-ri-	[[
*	*v	*v	*	*	*	*	*	*	*	*	*	*
=30	=30	=30	=30	=30	=30	=30	=30	=30	=30	=30	=30
!	!	!	!	!	!LO:DY:a	!	!	!LO:DY:a	!	!	!LO:DY:a
2GG/ 2G	2B-;/ 2g	.	2.B-;/	-té	f	2.g;/	-té	f	2.g;/	-té	f
4r	4dd\	.	.	.	.	.	.	.	.	.	.
=31	=31	=31	=31	=31	=31	=31	=31	=31	=31	=31	=31
*^	*^	*	*	*	*	*	*	*	*	*	*
(2d/	2.D\	(4ddd/	2.dd\ 2.ff#X	p	2.r	.	.	2.r	.	.	2.r	.	.
.	.	4ccc/	.	.	.	.	.	.	.	.	.	.	.
4c/	.	4aa/	.	.	.	.	.	.	.	.	.	.	.
*	*	*v	*v	*	*	*	*	*	*	*	*	*	*
=32	=32	=32	=32	=32	=32	=32	=32	=32	=32	=32	=32	=32
2B-\)	2G\	2b-\) 2gg	.	2.r	.	.	2.r	.	.	2.r	.	.
4r	4ryy	4r	.	.	.	.	.	.	.	.	.	.
*v	*v	*	*	*	*	*	*	*	*	*	*	*
=33||	=33||	=33||	=33||	=33||	=33||	=33||	=33||	=33||	=33||	=33||	=33||
!	!	!	!	!	!	!	!	!LO:DY:a	!	!	!LO:DY:a
!	!	!	!	!	!	!	!	!LO:DY:a	!LO:TX:a:t=3.e STROPHE.	!	!LO:DY:a
4r	([4g/	p	2.r	.	.	4g/	Nous	p <	4g/	Nous	p <
(4G\	4g/] 4b-	.	.	.	.	4g/	im-	.	4b-\	im-	.
4E-\	4g/) 4cc	.	.	.	.	4g/	-plo-	[[	4cc\	-plo-	[[
=34	=34	=34	=34	=34	=34	=34	=34	=34	=34	=34	=34
!	!	!	!	!	!LO:DY:a	!	!	!	!	!	!
4D\)	2.f#X/ 2.dd	.	4d/	Nous	p	2f#X^>/	-rons	.	2dd^\	-rons	.
4F#X\	.	.	4f#X/	im-	.	.	.	.	.	.	.
4A\	.	.	4a/	-plo-	.	4r	.	.	4r	.	.
!LO:LB:g=original	!LO:LB:g=original	!	!LO:LB:g=original	!	!	!LO:LB:g=original	!	!	!LO:LB:g=original	!	!
=35	=35	=35	=35	=35	=35	=35	=35	=35	=35	=35	=35
!	!	!	!	!	!	!	!	!LO:DY:a	!	!	!LO:DY:a
2G\ 2B-	([4g/	.	2g/	-rons	.	4g/	a-	<	4g/	a-	<
.	4g/] 4b-	.	.	.	.	4f/	-vec	.	4b-\	-vec	.
4E-\ 4e-	4g/) 4cc	.	4e-/	a-	.	4g/	fer-	[[	4cc\	fer-	[[
=36	=36	=36	=36	=36	=36	=36	=36	=36	=36	=36	=36
*^	*	*	*	*	*	*	*	*	*	*	*
2.d/	(>4D\	2f#X/ 2dd	.	(4d/	-vec	.	2f#X^>/	-veur	.	2dd^\	-veur	.
.	4E-\	.	.	4e-/)	.	.	.	.	.	.	.	.
.	4D\)	4r	.	4d/	fer-	.	4r	.	.	4r	.	.
*v	*v	*	*	*	*	*	*	*	*	*	*	*
=37	=37	=37	=37	=37	=37	=37	=37	=37	=37	=37	=37
!	!	!	!	!	!LO:DY:a	!	!	!LO:DY:a	!	!	!LO:DY:a
2.BBB-/ 2.BB-	4fn/ 4dd	f	4B-/	-veur	f	4fn/	ton	f	4dd\	ton	f
.	4f/ 4dd	.	4B-/	ton	.	4f/	as-	.	4dd\	as-	.
.	4f/ 4dd	.	4B-/	as-	.	4f/	-sis-	.	4dd\	-sis-	.
=38	=38	=38	=38	=38	=38	=38	=38	=38	=38	=38	=38
*	*^	*	*	*	*	*	*	*	*	*	*
!LO:TX:a:t=15	!	!	!	!	!	!	!	!	!	!	!	!
4BB-/	(<4dd/ 4ff	2.f\	.	4B-/	-sis-	.	(4dd\	-tan-	.	(4ff\	-tan-	.
4C/	4cc/ 4ee-	.	.	4c/	-tan-	.	4cc\)	.	.	4ee-\)	.	.
(8D\L	4b-/) 4dd	.	.	(8d/L	-ce	.	4b-\	-ce	.	4dd\	-ce	.
8E-\J)	.	.	.	8e-/J)	.	.	.	.	.	.	.	.
*	*v	*v	*	*	*	*	*	*	*	*	*	*
=39	=39	=39	=39	=39	=39	=39	=39	=39	=39	=39	=39
2F\	4f/ 4a 4cc	.	4f/	Dans	.	4a/	Dans	.	4cc\	Dans	.
.	4f/ 4a 4cc	.	4f/	la	.	4a/	la	.	4cc\	la	.
4F\	4f/ 4a 4cc	.	4f/	souf	.	4a/	souf	.	4cc\	souf	.
!LO:LB:g=original	!LO:LB:g=original	!	!LO:LB:g=original	!	!	!LO:LB:g=original	!	!	!LO:LB:g=original	!	!
=40	=40	=40	=40	=40	=40	=40	=40	=40	=40	=40	=40
2D\ 2d	(8f#X/L 8dd	.	(8d/L	.	.	(4a/	fran-	.	(8dd\L	fran-	.
.	8a/J 8cc	.	8f#X/J)	.	.	.	.	.	8cc\J)	.	.
!	!	!	!	!	!LO:DY:a	!	!	!LO:DY:a	!	!	!LO:DY:a
.	4g/ 4b-	.	4g/	.	>	4g/)	.	>	4b-\	.	>
4D\ 4d	4f#/) 4a	.	4f#/	-ce	.	4f#X/	-ce	.	4a/	-ce	.
=41	=41	=41	=41	=41	=41	=41	=41	=41	=41	=41	=41
!	!	!	!	!	!	!	!	!LO:DY:a	!	!	!LO:DY:a
2.E-\ 2.e-	[4g/	<	4e-^/	sois	.	4g/	sois	p	4g/	sois	p
.	4g/] 4b-	.	4e-/	not-	.	4g/	not-	.	4b-\	not-	.
.	4g/ 4cc	[[	4e-/	-re es-	.	4g/	-re es-	.	4cc\	-re es-	.
=42	=42	=42	=42	=42	=42	=42	=42	=42	=42	=42	=42
*^	*	*	*	*	*	*	*	*	*	*	*
!	!	!	!	!	!	!LO:DY:a	!	!	!LO:DY:a	!	!	!LO:DY:a
2.d/	4D\	2.f#X/ 2.dd	.	(4d/	-poir	<	2.f#X^>/	-poir	<[	2.dd^\	-poir	<[
.	4F#X\	.	.	4f#X/	.	.	.	.	.	.	.	.
.	4A\	.	.	4a/)	.	[[	.	.	.	.	.	.
*v	*v	*	*	*	*	*	*	*	*	*	*	*
=43	=43	=43	=43	=43	=43	=43	=43	=43	=43	=43	=43
*	*^	*	*	*	*	*	*	*	*	*	*
!	!	!	!	!	!	!LO:DY:a	!	!	!LO:DY:a	!	!	!
2DD/ 2D	8dd/L	4f#X\	.	4d/	con-	>	4f#X/	con-	>	(8dd\L	con-	.
!	!	!	!	!	!	!	!	!	!	!	!	!LO:DY:a
.	8a/J 8cc	.	.	.	.	.	.	.	.	8cc\J)	.	>
.	4g/ 4b-	4d\	.	4d/	-so-	.	4g/	-so-	.	4b-\	-so-	.
4DD/ 4D	4f#/ 4a	4c\	.	4c/	-la-	]]	4f#/	-la-	]]	4a/	-la-	]]
*	*v	*v	*	*	*	*	*	*	*	*	*	*
=44	=44	=44	=44	=44	=44	=44	=44	=44	=44	=44	=44
2.GG/ 2.G	2.B-;/ 2.g	.	2.B-;/	-teur	.	2.g;/	-teur	.	2.g;/	-teur	.
==	==	==	==	==	==	==	==	==	==	==	==
*-	*-	*-	*-	*-	*-	*-	*-	*-	*-	*-	*-
!!!RDF**kern: > = above
!!!RDF**kern: < = below
!!!system-decoration: [(s1,s2,s3)][(s4,s5)]
!!!ENC: Filip Voros
!!!END: 2022-08-11
!!!ENC: Julita Ruszuk
!!!END: 2022-09-13
!!!YEC: Copyright 2022 Narodowy Instytut Fryderyka Chopina (https://polishscores.org)
!!!YEM: License CC-BY-4.0 (https://creativecommons.org/licenses/by/4.0)
